src/icons/icons_set_02/030-etoile-contour.svg

<svg height="50" viewBox="0 0 50 50" width="50" xmlns="http://www.w3.org/2000/svg"><path d="m44.9493073 15.3222073c.5988617.6200406.9354769 1.4497393.9354769 2.315265 0 .9106501-.3726291 1.78164-.9981986 2.378193l-8.1579824 8.1573153c-.0765206.0732667-.1511185.1484536-.2237249.225482l1.8804087 11.2801759c.2889403.8398895.0984365 1.6359898-.3136699 2.4517161-.4337942.8107611-1.1778752 1.410912-2.0620993 1.6632198-.8842243.2523079-1.8329726.1351951-2.5557663-.2841373l-6.076939-3.1764405-4.1651118-2.2241748c-.0783126-.0437887-.1581153-.0846955-.2392455-.1226553l-10.5632631 5.5396468c-.8094014.4047007-1.6294938.5894436-2.50500928.2473187-1.66615112-.4837728-2.61255982-2.290893-2.28883686-3.8732163l1.10474012-6.7779752.82769702-4.6836149.03056093-.1424427c.00789485-.0312083.01522339-.0625376.02198409-.0939725l-8.51289147-8.2591196c-.53773173-.4668355-.87043989-1.126488-.92656437-1.8358375-.20756479-1.6135119.72704694-3.1657767 2.26448969-3.7308013.14486786-.0532403.29541164-.0895325.44862567-.1081521l6.69985264-.8135876 4.62822322-.6795309c.1192274-.0250909.2349347-.05452.3519029-.0887623.097081-.0284204.1027969-.0291744.2408917-.076311l5.1124675-10.70878561.0775781-.14654432c.5619893-.96281945 1.5602475-1.58899959 2.6716904-1.67587857l.1558601-.00608234h.2138394c1.2844155-.06283663 2.473974.67844683 2.9839284 1.85788637l3.0112867 6.0204841 2.05449 4.24862487c.0640605.128354.1759615.3193024.2928785.5110379l11.7523104 1.6958696c.7054291.0545359 1.3619669.3833807 1.8281197.9157872zm-3.0595095 2.5741751c.0614465.0795168.1287742.154266.2014322.2236396-.0251746-.0240366-.0482619-.0498402-.0691413-.0771286-.047426-.0450659-.0916905-.0939867-.1322909-.146511zm-.7986519.2585317-11.8152285-1.7049488c-1.3317937-.1921791-1.8462805-1.2959208-1.6896399-2.2931111-.0355192-.0663416-.0692615-.1312789-.1002874-.1934776l-2.0536932-4.24703032-2.4680498-4.93406318-5.2335656 10.9624426c-.5727503 1.1997067-1.772046 1.3734777-2.6766297.9384271-.0379196.008113-.0760818.0160061-.1145172.0236793l-.1010159.0174871-4.7328688.6942713-5.22150543.6345513 8.16330993 7.9199592c.3639856.353135.5802266.8313583.6049632 1.3378936.0310095.6349856-.0287088 1.2710118-.1772388 1.8888823l-.8116498 4.5917966-.9074046 5.5603288 10.1249069-5.3101405c.4376356-.2295237.9447507-.2888993 1.4235704-.1666786.649334.1657451 1.2743363.4152923 1.8251323.7237047l4.1154871 2.1973387 5.0441519 2.6381597-1.8794418-11.274375c-.0881403-.5287356.039652-1.0707231.3547121-1.5043903.3574969-.4920795.7583043-.9511862 1.1665806-1.3414483zm-30.1463007 21.7585318c.135578.027157.2678704.0682798.3947763.1226474-.06868-.0288289-.1388253-.05246-.2056197-.0696942-.0568328-.0212203-.119795-.039052-.1891566-.0529532zm.5016177.1721914c-.0346902-.0173451-.0686753-.0330259-.1019611-.0471529.0311846.0130594.0668145.0295796.1019611.0471529zm-7.78845819-23.2059599.10434555.0908657c-.03294674-.0319679-.06775758-.0623144-.10434555-.0908657zm.49416526.9883305c-.0018463-.0964491-.01066826-.1926382-.02639681-.2878141.00481649.0291453.00699856.0582057.00670149.0869145.01173994.065866.01839581.1330141.01969532.2008996zm18.66028423-14.58005174v.11693872l.109128.06369707-.010437-.13351982zm.1541461.75655305c.0220853.00522095.0444284.00963007.0669885.0132019.1693483-.03217982.3179253-.13611854.4058921-.28682618l-.5178987-.30229298zm.0017139.02192571-.0017139-.02192571c-.0530578-.01254282-.104628-.02977112-.1541461-.05133169v.07933974h.2750654l.088347-.00361427c-.0481133-.00000542-.095659-.00381097-.1422778-.01119188-.0214519.00407632-.0432371.00700119-.0652746.00872381z" transform="translate(1.995 2.995238)"/></svg>

<?xml version="1.0" encoding="UTF-8"?>
<svg width="50px" height="50px" viewBox="0 0 50 50" version="1.1" xmlns="http://www.w3.org/2000/svg" xmlns:xlink="http://www.w3.org/1999/xlink">
    <!-- Generator: Sketch 52.4 (67378) - http://www.bohemiancoding.com/sketch -->
    <title>030-etoile-contour</title>
    <desc>Created with Sketch.</desc>
    <g id="030-etoile-contour" stroke="none" stroke-width="1" fill="none" fill-rule="evenodd">
        <g id="Group" transform="translate(1.995000, 2.995238)" fill="#000000" fill-rule="nonzero">
            <g id="088-etoile-pleine">
                <g id="ICONSET-01">
                    <g id="088-etoile-pleine">
                        <path d="M44.9493073,15.3222073 C45.548169,15.9422479 45.8847842,16.7719466 45.8847842,17.6374723 C45.8847842,18.5481224 45.5121551,19.4191123 44.8865856,20.0156653 L36.7286032,28.1729806 C36.6520826,28.2462473 36.5774847,28.3214342 36.5048783,28.3984626 L38.385287,39.6786385 C38.6742273,40.518528 38.4837235,41.3146283 38.0716171,42.1303546 C37.6378229,42.9411157 36.8937419,43.5412666 36.0095178,43.7935744 C35.1252935,44.0458823 34.1765452,43.9287695 33.4537515,43.5094371 L27.3768125,40.3329966 L23.2117007,38.1088218 C23.1333881,38.0650331 23.0535854,38.0241263 22.9724552,37.9861665 L12.4091921,43.5258133 C11.5997907,43.930514 10.7796983,44.1152569 9.90418282,43.773132 C8.2380317,43.2893592 7.291623,41.482239 7.61534596,39.8999157 L8.72008608,33.1219405 L9.5477831,28.4383256 L9.57834403,28.2958829 C9.58623888,28.2646746 9.59356742,28.2333453 9.60032812,28.2019104 L1.08743665,19.9427908 C0.549704921,19.4759553 0.216996757,18.8163028 0.160872276,18.1069533 C-0.046692505,16.4934414 0.887919216,14.9411766 2.42536197,14.376152 C2.57022983,14.3229117 2.72077361,14.2866195 2.87398764,14.2679999 L9.57384028,13.4544123 L14.2020635,12.7748814 C14.3212909,12.7497905 14.4369982,12.7203614 14.5539664,12.6861191 C14.6510474,12.6576987 14.6567633,12.6569447 14.7948581,12.6098081 L19.9073256,1.90102249 L19.9849037,1.75447817 C20.546893,0.791658718 21.5451512,0.165478583 22.6565941,0.0785995989 L22.8124542,0.0725172619 L23.0262936,0.0725172619 C24.3107091,0.00968062872 25.5002676,0.750964094 26.010222,1.93040363 L29.0215087,7.95088773 L31.0759987,12.1995126 C31.1400592,12.3278666 31.2519602,12.518815 31.3688772,12.7105505 L43.1211876,14.4064201 C43.8266167,14.460956 44.4831545,14.7898008 44.9493073,15.3222073 Z M41.8897978,17.8963824 C41.9512443,17.9758992 42.018572,18.0506484 42.09123,18.120022 C42.0660554,18.0959854 42.0429681,18.0701818 42.0220887,18.0428934 C41.9746627,17.9978275 41.9303982,17.9489067 41.8897978,17.8963824 Z M41.0911459,18.1549141 L29.2759174,16.4499653 C27.9441237,16.2577862 27.4296369,15.1540445 27.5862775,14.1568542 C27.5507583,14.0905126 27.517016,14.0255753 27.4859901,13.9633766 L25.4322969,9.71634628 L22.9642471,4.7822831 L17.7306815,15.7447257 C17.1579312,16.9444324 15.9586355,17.1182034 15.0540518,16.6831528 C15.0161322,16.6912658 14.97797,16.6991589 14.9395346,16.7068321 L14.8385187,16.7243192 L10.1056499,17.4185905 L4.88414447,18.0531418 L13.0474544,25.973101 C13.41144,26.326236 13.627681,26.8044593 13.6524176,27.3109946 C13.6834271,27.9459802 13.6237088,28.5820064 13.4751788,29.1998769 L12.663529,33.7916735 L11.7561244,39.3520023 L21.8810313,34.0418618 C22.3186669,33.8123381 22.825782,33.7529625 23.3046017,33.8751832 C23.9539357,34.0409283 24.578938,34.2904755 25.129734,34.5988879 L29.2452211,36.7962266 L34.289373,39.4343863 L32.4099312,28.1600113 C32.3217909,27.6312757 32.4495832,27.0892882 32.7646433,26.655621 C33.1221402,26.1635415 33.5229476,25.7044348 33.9312239,25.3141727 L41.0911459,18.1549141 Z M10.9448452,39.9134459 C11.0804232,39.9406029 11.2127156,39.9817257 11.3396215,40.0360933 C11.2709415,40.0072644 11.2007962,39.9836333 11.1340018,39.9663991 C11.077169,39.9451788 11.0142068,39.9273471 10.9448452,39.9134459 Z M11.4464629,40.0856373 C11.4117727,40.0682922 11.3777876,40.0526114 11.3445018,40.0384844 C11.3756864,40.0515438 11.4113163,40.068064 11.4464629,40.0856373 Z M3.65800471,16.8796774 L3.76235026,16.9705431 C3.72940352,16.9385752 3.69459268,16.9082287 3.65800471,16.8796774 Z M4.15216997,17.8680079 C4.15032367,17.7715588 4.14150171,17.6753697 4.12577316,17.5801938 C4.13058965,17.6093391 4.13277172,17.6383995 4.13247465,17.6671083 C4.14421459,17.7329743 4.15087046,17.8001224 4.15216997,17.8680079 Z M22.8124542,3.28795616 L22.8124542,3.40489488 L22.9215822,3.46859195 L22.9111452,3.33507213 L22.8124542,3.28795616 Z M22.9666003,4.04450921 C22.9886856,4.04973016 23.0110287,4.05413928 23.0335888,4.05771111 C23.2029371,4.02553129 23.3515141,3.92159257 23.4394809,3.77088493 L22.9215822,3.46859195 L22.9666003,4.04450921 Z M22.9683142,4.06643492 L22.9666003,4.04450921 C22.9135425,4.03196639 22.8619723,4.01473809 22.8124542,3.99317752 L22.8124542,4.07251726 L23.0875196,4.07251726 L23.1758666,4.06890299 C23.1277533,4.06889757 23.0802076,4.06509202 23.0335888,4.05771111 C23.0121369,4.06178743 22.9903517,4.0647123 22.9683142,4.06643492 Z" id="Shape"></path>
                    </g>
                </g>
            </g>
        </g>
    </g>
</svg>
